; generated by PrusaSlicer 2.3.0+ on 2021-03-06 at 15:57:20 UTC

; 

; external perimeters extrusion width = 0.45mm
; perimeters extrusion width = 0.45mm
; infill extrusion width = 0.45mm
; solid infill extrusion width = 0.45mm
; top infill extrusion width = 0.40mm
; first layer extrusion width = 0.42mm

M73 P0 R94
M73 Q0 S94
M201 X1000 Y1000 Z200 E5000 ; sets maximum accelerations, mm/sec^2
M203 X200 Y200 Z12 E120 ; sets maximum feedrates, mm/sec
M204 P1250 R1250 T1250 ; sets acceleration (P, T) and retract acceleration (R), mm/sec^2
M205 X8.00 Y8.00 Z0.40 E4.50 ; sets the jerk limits, mm/sec
M205 S0 T0 ; sets the minimum extruding and travel feed rate, mm/sec
M107
;TYPE:Custom
M862.3 P "MK3S" ; printer model check
M862.1 P0.4 ; nozzle diameter check
M115 U3.9.2 ; tell printer latest fw version
G90 ; use absolute coordinates
M83 ; extruder relative mode
M104 S215 ; set extruder temp
M140 S60 ; set bed temp
M190 S60 ; wait for bed temp
M109 S215 ; wait for extruder temp
G28 W ; home all without mesh bed level
G80 ; mesh bed leveling
G1 Y-3.0 F1000.0 ; go outside print area
G92 E0.0
G1 X60.0 E9.0 F1000.0 ; intro line
G1 X100.0 E12.5 F1000.0 ; intro line
G92 E0.0
M221 S100

; Don't change E values below. Excessive value can damage the printer.
M907 E430 ; set extruder motor current
G21 ; set units to millimeters
G90 ; use absolute coordinates
M83 ; use relative distances for extrusion
M900 K0.05 ; Filament gcode LA 1.5
M900 K30 ; Filament gcode LA 1.0
;LAYER_CHANGE
;Z:0.2
;HEIGHT:0.2
;BEFORE_LAYER_CHANGE
G92 E0.0
;0.2


G1 E-0.80000 F2100.000
G1 Z0.400 F10800.000
;AFTER_LAYER_CHANGE
;0.2
G1 X96.444 Y85.780
G1 Z0.200
G1 E0.80000 F2100.000
M204 S500
;TYPE:Skirt
;WIDTH:0.42
G1 F1200.000
G1 X96.839 Y84.925 E0.02954
G1 X103.308 Y76.429 E0.33481
G1 X103.671 Y76.061 E0.01621
G1 X104.108 Y75.779 E0.01633
G1 X104.597 Y75.598 E0.01633
G1 X105.109 Y75.529 E0.01621
G1 X137.101 Y75.528 E1.00308
M73 P0 R93
G1 X137.607 Y75.583 E0.01597
G1 X138.094 Y75.747 E0.01609
G1 X138.531 Y76.009 E0.01597
G1 X138.904 Y76.361 E0.01609
G1 X145.360 Y85.182 E0.34276
G1 X150.025 Y98.115 E0.43107
G1 X150.160 Y98.877 E0.02426
G1 X150.159 Y109.784 E0.34198
G1 X150.017 Y110.529 E0.02378
G1 X149.647 Y111.191 E0.02378
G1 X146.849 Y113.552 E0.11477
G1 X146.017 Y113.959 E0.02907
G1 X122.458 Y118.401 E0.75166
G1 X105.025 Y118.281 E0.54662
G1 X104.284 Y118.136 E0.02367
G1 X103.629 Y117.768 E0.02355
G1 X101.324 Y115.496 E0.10149
G1 X100.984 Y115.053 E0.01752
G1 X96.618 Y106.598 E0.29834
G1 X96.441 Y106.101 E0.01657
G1 X96.379 Y105.580 E0.01645
G1 X96.379 Y86.324 E0.60376
G1 X96.437 Y85.840 E0.01528
M204 S1000
; printing object Body39.stl id:0 copy 0
;WIPE_START
G1 F8640.000
G1 X96.839 Y84.925 E-0.23076
G1 X98.228 Y83.102 E-0.52924
;WIPE_END
G1 E-0.04000 F2100.000
G1 Z0.600 F10800.000
G1 X99.920 Y87.496
G1 Z0.200
G1 E0.80000 F2100.000
M204 S500
;TYPE:Perimeter
G1 F1200.000
G1 X102.114 Y87.496 E0.06877
G1 X102.114 Y85.319 E0.06825
G1 X104.257 Y85.319 E0.06722
G1 X104.257 Y83.069 E0.07054
G1 X106.335 Y83.069 E0.06515
G1 X106.335 Y79.069 E0.12542
G1 X108.196 Y79.069 E0.05833
G1 X108.196 Y81.069 E0.06271
G1 X114.920 Y81.069 E0.21085
G1 X114.920 Y79.069 E0.06271
G1 X116.592 Y79.069 E0.05241
G1 X116.592 Y81.069 E0.06271
G1 X125.563 Y81.069 E0.28130
M73 Q0 S93
G1 X125.563 Y79.069 E0.06271
G1 X127.592 Y79.069 E0.06360
G1 X127.592 Y81.069 E0.06271
G1 X133.920 Y81.069 E0.19842
G1 X133.920 Y79.069 E0.06271
G1 X135.933 Y79.069 E0.06311
G1 X135.933 Y83.241 E0.13080
G1 X138.110 Y83.241 E0.06825
G1 X138.110 Y85.352 E0.06618
G1 X140.023 Y85.352 E0.05998
G1 X140.023 Y87.528 E0.06825
G1 X142.135 Y87.528 E0.06621
G1 X142.140 Y93.044 E0.17293
G1 X142.206 Y93.750 E0.02223
G1 X140.023 Y93.734 E0.06846
G1 X140.023 Y100.042 E0.19779
G1 X135.867 Y100.042 E0.13030
G1 X135.867 Y102.186 E0.06722
G1 X133.690 Y102.186 E0.06825
G1 X133.690 Y104.264 E0.06515
G1 X125.148 Y104.264 E0.26784
G1 X125.148 Y108.617 E0.13650
G1 X123.037 Y108.617 E0.06618
G1 X123.037 Y112.674 E0.12720
G1 X118.920 Y112.674 E0.12909
G1 X118.920 Y110.794 E0.05894
G1 X108.294 Y110.794 E0.33316
G1 X108.294 Y112.674 E0.05894
G1 X104.191 Y112.674 E0.12865
G1 X104.191 Y108.353 E0.13547
G1 X101.996 Y108.353 E0.06885
G1 X101.996 Y104.395 E0.12409
G1 X99.920 Y104.395 E0.06507
G1 X99.920 Y87.556 E0.52800
M204 S1000
;WIPE_START
G1 F8640.000
G1 X102.114 Y87.496 E-0.50665
G1 X102.114 Y86.398 E-0.25335
;WIPE_END
G1 E-0.04000 F2100.000
G1 Z0.600 F10800.000
G1 X142.351 Y100.069
G1 Z0.200
G1 E0.80000 F2100.000
M204 S500
G1 F1200.000
G1 X146.619 Y100.069 E0.13382
G1 X146.619 Y108.551 E0.26595
G1 X144.244 Y108.551 E0.07446
G1 X144.244 Y110.497 E0.06101
G1 X142.351 Y110.497 E0.05936
G1 X142.351 Y108.551 E0.06101
G1 X140.405 Y108.551 E0.06101
G1 X140.405 Y106.069 E0.07782
G1 X142.351 Y106.069 E0.06101
G1 X142.351 Y100.129 E0.18624
M204 S1000
;WIPE_START
G1 F8640.000
G1 X145.642 Y100.083 E-0.76000
;WIPE_END
G1 E-0.04000 F2100.000
G1 Z0.600 F10800.000
G1 X108.573 Y80.692
G1 Z0.200
G1 E0.80000 F2100.000
M204 S500
G1 F1200.000
G1 X114.543 Y80.692 E0.18720
G1 X114.543 Y78.692 E0.06271
G1 X116.969 Y78.692 E0.07606
G1 X116.969 Y80.692 E0.06271
G1 X125.186 Y80.692 E0.25765
G1 X125.186 Y78.692 E0.06271
G1 X127.969 Y78.692 E0.08724
G1 X127.969 Y80.692 E0.06271
G1 X133.543 Y80.692 E0.17477
G1 X133.543 Y78.692 E0.06271
G1 X136.310 Y78.692 E0.08676
G1 X136.310 Y82.864 E0.13080
G1 X138.487 Y82.864 E0.06825
G1 X138.487 Y84.975 E0.06618
G1 X140.400 Y84.975 E0.05998
G1 X140.400 Y87.151 E0.06825
G1 X142.511 Y87.151 E0.06620
G1 X142.517 Y93.030 E0.18432
G1 X142.556 Y93.553 E0.01644
G1 X142.656 Y94.153 E0.01909
G1 X142.475 Y94.129 E0.00573
G1 X140.400 Y94.113 E0.06506
G1 X140.400 Y99.692 E0.17491
G1 X144.053 Y99.692 E0.11455
G1 X144.046 Y96.888 E0.08792
G1 X144.016 Y96.340 E0.01720
G1 X143.902 Y95.656 E0.02174
G1 X144.101 Y95.682 E0.00629
G1 X144.621 Y95.688 E0.01633
G1 X144.621 Y99.692 E0.12555
G1 X146.996 Y99.692 E0.07446
G1 X146.996 Y108.928 E0.28960
G1 X144.621 Y108.928 E0.07446
G1 X144.621 Y110.874 E0.06101
G1 X141.974 Y110.874 E0.08301
G1 X141.974 Y108.928 E0.06101
G1 X140.028 Y108.928 E0.06101
G1 X140.028 Y105.692 E0.10147
G1 X141.974 Y105.692 E0.06101
G1 X141.974 Y100.419 E0.16533
G1 X136.244 Y100.419 E0.17965
G1 X136.244 Y102.563 E0.06722
G1 X134.067 Y102.563 E0.06825
G1 X134.067 Y104.641 E0.06515
G1 X125.525 Y104.641 E0.26784
G1 X125.525 Y108.994 E0.13650
G1 X123.414 Y108.994 E0.06618
G1 X123.414 Y113.051 E0.12720
G1 X121.336 Y113.051 E0.06515
G1 X121.336 Y115.261 E0.06929
G1 X120.833 Y115.261 E0.01579
G1 X120.833 Y113.051 E0.06929
G1 X118.543 Y113.051 E0.07179
G1 X118.543 Y111.171 E0.05894
G1 X108.672 Y111.171 E0.30951
G1 X108.672 Y113.051 E0.05894
G1 X106.462 Y113.051 E0.06929
G1 X106.462 Y115.118 E0.06481
G1 X105.892 Y115.118 E0.01786
G1 X105.892 Y113.051 E0.06481
G1 X103.814 Y113.051 E0.06515
G1 X103.814 Y108.730 E0.13547
G1 X101.619 Y108.730 E0.06885
G1 X101.619 Y104.773 E0.12409
G1 X99.543 Y104.773 E0.06507
G1 X99.543 Y87.118 E0.55353
G1 X101.736 Y87.118 E0.06877
G1 X101.736 Y84.942 E0.06825
G1 X103.880 Y84.942 E0.06722
G1 X103.880 Y82.692 E0.07054
G1 X105.958 Y82.692 E0.06515
G1 X105.958 Y78.692 E0.12542
G1 X108.573 Y78.692 E0.08198
G1 X108.573 Y80.632 E0.06083
M204 S1000
G1 X108.950 Y80.315 F10800.000
M204 S500
;TYPE:External perimeter
G1 F1200.000
G1 X114.166 Y80.315 E0.16355
G1 X114.166 Y78.315 E0.06271
G1 X117.346 Y78.315 E0.09971
G1 X117.346 Y80.315 E0.06271
G1 X124.809 Y80.315 E0.23401
G1 X124.809 Y78.315 E0.06271
G1 X128.346 Y78.315 E0.11089
G1 X128.346 Y80.315 E0.06271
G1 X133.166 Y80.315 E0.15113
G1 X133.166 Y78.315 E0.06271
G1 X136.687 Y78.315 E0.11040
G1 X136.687 Y82.487 E0.13080
G1 X138.864 Y82.487 E0.06825
G1 X138.864 Y84.598 E0.06618
G1 X140.777 Y84.598 E0.05998
G1 X140.777 Y86.774 E0.06825
G1 X142.888 Y86.774 E0.06619
G1 X142.894 Y93.016 E0.19570
G1 X142.930 Y93.508 E0.01546
G1 X143.088 Y94.449 E0.02993
G1 X143.088 Y94.627 E0.00558
G1 X142.896 Y94.566 E0.00633
G1 X142.448 Y94.506 E0.01415
G1 X140.777 Y94.493 E0.05241
G1 X140.777 Y99.315 E0.15118
G1 X143.675 Y99.315 E0.09088
G1 X143.669 Y96.899 E0.07576
G1 X143.640 Y96.382 E0.01624
G1 X143.475 Y95.388 E0.03160
G1 X143.475 Y95.183 E0.00642
G1 X143.674 Y95.246 E0.00656
G1 X144.127 Y95.306 E0.01433
G1 X144.999 Y95.314 E0.02732
G1 X144.999 Y99.315 E0.12543
G1 X147.373 Y99.315 E0.07446
G1 X147.373 Y109.305 E0.31324
G1 X144.999 Y109.305 E0.07446
G1 X144.999 Y111.251 E0.06101
G1 X141.597 Y111.251 E0.10666
G1 X141.597 Y109.305 E0.06101
G1 X139.651 Y109.305 E0.06101
G1 X139.651 Y105.315 E0.12512
G1 X141.597 Y105.315 E0.06101
G1 X141.597 Y100.796 E0.14169
G1 X136.621 Y100.796 E0.15601
G1 X136.621 Y102.940 E0.06722
G1 X134.444 Y102.940 E0.06825
G1 X134.444 Y105.018 E0.06515
G1 X125.902 Y105.018 E0.26784
G1 X125.902 Y109.371 E0.13650
G1 X123.791 Y109.371 E0.06618
G1 X123.791 Y113.428 E0.12720
G1 X121.714 Y113.428 E0.06515
G1 X121.714 Y115.638 E0.06929
G1 X120.456 Y115.638 E0.03944
G1 X120.456 Y113.428 E0.06929
G1 X118.166 Y113.428 E0.07179
G1 X118.166 Y111.548 E0.05894
G1 X109.049 Y111.548 E0.28587
G1 X109.049 Y113.428 E0.05894
G1 X106.839 Y113.428 E0.06929
G1 X106.839 Y115.495 E0.06481
G1 X105.515 Y115.495 E0.04151
G1 X105.515 Y113.428 E0.06481
G1 X103.437 Y113.428 E0.06515
G1 X103.437 Y109.107 E0.13547
G1 X101.241 Y109.107 E0.06885
G1 X101.241 Y105.150 E0.12409
G1 X99.166 Y105.150 E0.06507
G1 X99.166 Y86.741 E0.57718
G1 X101.359 Y86.741 E0.06877
G1 X101.359 Y84.565 E0.06825
G1 X103.503 Y84.565 E0.06722
G1 X103.503 Y82.315 E0.07054
G1 X105.581 Y82.315 E0.06515
G1 X105.581 Y78.315 E0.12542
G1 X108.950 Y78.315 E0.10562
G1 X108.950 Y80.255 E0.06083
M204 S1000
G1 X109.085 Y80.691 F10800.000
;WIPE_START
G1 F8640.000
G1 X112.241 Y80.293 E-0.76000
;WIPE_END
G1 E-0.04000 F2100.000
G1 Z0.600 F10800.000
G1 X139.187 Y85.465
G1 Z0.200
G1 E0.80000 F2100.000
M204 S500
;TYPE:Solid infill
;WIDTH:0.422591
G1 F1200.000
G1 X139.740 Y86.018 E0.02469
G1 X139.740 Y86.555 E0.01695
G1 X138.650 Y85.465 E0.04866
M204 S1000
;WIPE_START
G1 F8640.000
G1 X139.740 Y86.555 E-0.35588
G1 X139.740 Y86.018 E-0.12398
G1 X139.187 Y85.465 E-0.18055
;WIPE_END
G1 E-0.13959 F2100.000
G1 Z0.600 F10800.000
G1 X137.997 Y83.738
G1 Z0.200
G1 E0.80000 F2100.000
M204 S500
G1 F1200.000
G1 X137.783 Y83.524 E0.00955
G1 X137.246 Y83.524 E0.01695
G1 X137.827 Y84.105 E0.02594
G1 X137.827 Y84.642 E0.01695
G1 X136.539 Y83.354 E0.05749
M204 S1000
;WIPE_START
G1 F8640.000
G1 X137.827 Y84.642 E-0.42050
G1 X137.827 Y84.105 E-0.12398
G1 X137.246 Y83.524 E-0.18976
G1 X137.357 Y83.524 E-0.02576
;WIPE_END
G1 E-0.04000 F2100.000
G1 Z0.600 F10800.000
G1 X135.820 Y79.950
G1 Z0.200
G1 E0.80000 F2100.000
M204 S500
G1 F1200.000
G1 X135.222 Y79.352 E0.02670
G1 X134.685 Y79.352 E0.01695
G1 X135.650 Y80.317 E0.04310
G1 X135.650 Y80.854 E0.01695
G1 X134.203 Y79.407 E0.06462
G1 X134.203 Y79.944 E0.01695
G1 X135.650 Y81.391 E0.06462
G1 X135.650 Y81.928 E0.01695
G1 X134.203 Y80.481 E0.06462
G1 X134.203 Y81.018 E0.01695
G1 X135.820 Y82.635 E0.07219
M204 S1000
;WIPE_START
G1 F8640.000
G1 X134.203 Y81.018 E-0.52802
G1 X134.203 Y80.481 E-0.12398
M73 Q1 S93
G1 X134.534 Y80.811 E-0.10800
;WIPE_END
G1 E-0.04000 F2100.000
G1 Z0.600 F10800.000
G1 X133.831 Y81.182
G1 Z0.200
G1 E0.80000 F2100.000
M204 S500
G1 F1200.000
G1 X135.650 Y83.002 E0.08124
G1 X135.650 Y83.524 E0.01647
M73 P1 R93
G1 X136.172 Y83.524 E0.01647
G1 X137.827 Y85.179 E0.07389
G1 X137.827 Y85.634 E0.01439
G1 X138.283 Y85.634 E0.01439
G1 X139.910 Y87.261 E0.07263
M204 S1000
;WIPE_START
G1 F8640.000
G1 X138.283 Y85.634 E-0.53122
G1 X137.827 Y85.634 E-0.10525
G1 X137.827 Y85.179 E-0.10525
G1 X137.771 Y85.123 E-0.01827
;WIPE_END
G1 E-0.04000 F2100.000
G1 Z0.600 F10800.000
G1 X141.364 Y87.642
G1 Z0.200
G1 E0.80000 F2100.000
M204 S500
G1 F1200.000
G1 X141.852 Y88.130 E0.02181
G1 X141.853 Y88.668 E0.01697
G1 X140.997 Y87.811 E0.03823
G1 X140.460 Y87.811 E0.01695
G1 X141.854 Y89.205 E0.06223
G1 X141.854 Y89.743 E0.01697
G1 X133.463 Y81.352 E0.37462
G1 X132.926 Y81.352 E0.01695
G1 X141.855 Y90.280 E0.39862
G1 X141.855 Y90.818 E0.01697
G1 X132.389 Y81.352 E0.42261
G1 X131.852 Y81.352 E0.01695
G1 X141.856 Y91.355 E0.44661
G1 X141.856 Y91.893 E0.01697
G1 X131.316 Y81.352 E0.47061
G1 X130.779 Y81.352 E0.01695
G1 X141.857 Y92.430 E0.49461
G1 X141.857 Y92.968 E0.01697
G1 X130.242 Y81.352 E0.51860
G1 X129.705 Y81.352 E0.01695
G1 X141.817 Y93.464 E0.54077
G1 X141.276 Y93.460 E0.01708
G1 X129.168 Y81.352 E0.54059
G1 X128.631 Y81.352 E0.01695
G1 X140.735 Y93.456 E0.54041
G1 X140.194 Y93.452 E0.01708
G1 X127.924 Y81.182 E0.54780
M204 S1000
;WIPE_START
G1 F8640.000
G1 X130.252 Y83.510 E-0.76000
;WIPE_END
G1 E-0.04000 F2100.000
G1 Z0.600 F10800.000
G1 X127.479 Y79.663
G1 Z0.200
G1 E0.80000 F2100.000
M204 S500
G1 F1200.000
G1 X127.168 Y79.352 E0.01388
G1 X126.631 Y79.352 E0.01695
G1 X127.309 Y80.030 E0.03028
G1 X127.309 Y80.567 E0.01695
G1 X126.094 Y79.352 E0.05425
G1 X125.846 Y79.352 E0.00782
G1 X125.846 Y79.641 E0.00913
G1 X139.740 Y93.535 E0.62030
G1 X139.740 Y94.072 E0.01695
G1 X125.846 Y80.178 E0.62030
M73 P1 R92
G1 X125.846 Y80.715 E0.01695
G1 X139.740 Y94.609 E0.62030
G1 X139.740 Y95.146 E0.01695
G1 X125.846 Y81.252 E0.62030
G1 X125.846 Y81.352 E0.00316
G1 X125.409 Y81.352 E0.01380
G1 X139.740 Y95.683 E0.63981
G1 X139.740 Y96.219 E0.01695
G1 X124.872 Y81.352 E0.66379
G1 X124.335 Y81.352 E0.01695
G1 X139.740 Y96.756 E0.68776
G1 X139.740 Y97.293 E0.01695
G1 X123.798 Y81.352 E0.71173
G1 X123.262 Y81.352 E0.01695
G1 X139.740 Y97.830 E0.73570
G1 X139.740 Y98.367 E0.01695
G1 X122.725 Y81.352 E0.75968
M73 Q1 S92
G1 X122.188 Y81.352 E0.01695
G1 X139.740 Y98.904 E0.78365
G1 X139.740 Y99.441 E0.01695
G1 X121.651 Y81.352 E0.80762
G1 X121.114 Y81.352 E0.01695
G1 X139.521 Y99.759 E0.82182
G1 X138.984 Y99.759 E0.01695
G1 X120.577 Y81.352 E0.82182
G1 X120.040 Y81.352 E0.01695
G1 X138.447 Y99.759 E0.82182
G1 X137.910 Y99.759 E0.01695
G1 X119.503 Y81.352 E0.82182
G1 X118.966 Y81.352 E0.01695
G1 X137.373 Y99.759 E0.82182
G1 X136.836 Y99.759 E0.01695
G1 X118.429 Y81.352 E0.82182
G1 X117.892 Y81.352 E0.01695
G1 X136.299 Y99.759 E0.82182
G1 X135.762 Y99.759 E0.01695
G1 X117.186 Y81.182 E0.82939
M204 S1000
;WIPE_START
G1 F8640.000
G1 X119.513 Y83.510 E-0.76000
;WIPE_END
G1 E-0.04000 F2100.000
G1 Z0.600 F10800.000
G1 X115.722 Y79.182
G1 Z0.200
G1 E0.80000 F2100.000
M204 S500
G1 F1200.000
G1 X116.309 Y79.769 E0.02619
G1 X116.309 Y80.306 E0.01695
G1 X115.355 Y79.352 E0.04258
G1 X115.203 Y79.352 E0.00481
G1 X115.203 Y79.737 E0.01214
G1 X116.309 Y80.843 E0.04938
G1 X116.309 Y81.352 E0.01608
G1 X116.818 Y81.352 E0.01608
G1 X135.584 Y100.118 E0.83783
G1 X135.584 Y100.655 E0.01695
G1 X115.203 Y80.273 E0.90995
G1 X115.203 Y80.810 E0.01695
G1 X135.584 Y101.192 E0.90995
G1 X135.584 Y101.729 E0.01695
G1 X115.203 Y81.347 E0.90995
G1 X114.671 Y81.352 E0.01681
G1 X135.222 Y101.903 E0.91753
G1 X134.685 Y101.903 E0.01695
G1 X114.134 Y81.352 E0.91753
G1 X113.597 Y81.352 E0.01695
G1 X134.148 Y101.903 E0.91753
G1 X133.611 Y101.903 E0.01695
G1 X113.060 Y81.352 E0.91753
G1 X112.523 Y81.352 E0.01695
G1 X133.408 Y102.237 E0.93243
G1 X133.408 Y102.773 E0.01695
G1 X111.986 Y81.352 E0.95640
G1 X111.449 Y81.352 E0.01695
G1 X133.408 Y103.310 E0.98037
G1 X133.408 Y103.847 E0.01695
G1 X110.912 Y81.352 E1.00434
G1 X110.375 Y81.352 E0.01695
G1 X133.004 Y103.981 E1.01030
M73 Q2 S92
G1 X132.467 Y103.981 E0.01695
G1 X109.838 Y81.352 E1.01030
M73 P2 R92
G1 X109.301 Y81.352 E0.01695
G1 X131.930 Y103.981 E1.01030
G1 X131.393 Y103.981 E0.01695
G1 X108.595 Y81.182 E1.01787
M204 S1000
;WIPE_START
G1 F8640.000
G1 X110.922 Y83.510 E-0.76000
;WIPE_END
G1 E-0.04000 F2100.000
G1 Z0.600 F10800.000
G1 X108.082 Y79.596
G1 Z0.200
G1 E0.80000 F2100.000
M204 S500
G1 F1200.000
G1 X107.838 Y79.352 E0.01091
G1 X107.301 Y79.352 E0.01695
G1 X107.913 Y79.963 E0.02730
G1 X107.913 Y80.500 E0.01695
G1 X106.764 Y79.352 E0.05128
G1 X106.618 Y79.352 E0.00462
G1 X106.618 Y79.743 E0.01233
G1 X130.856 Y103.981 E1.08215
G1 X130.319 Y103.981 E0.01695
G1 X106.618 Y80.279 E1.05818
G1 X106.618 Y80.816 E0.01695
G1 X129.782 Y103.981 E1.03420
G1 X129.245 Y103.981 E0.01695
